openframe-frontend-core/src/components/icons-v2/brand-logos/osquery-logo.svg

<svg width="24" height="24" viewBox="0 0 24 24" fill="none" xmlns="http://www.w3.org/2000/svg">
<path d="M21.9896 2V7.02537L16.9946 12.0404V7.00447L21.9896 2.00008" fill="#A596FF"/>
<path d="M12 2V7.02537L16.995 12.0404V7.00447L12 2.00008" fill="black"/>
<path d="M22.0002 22.0701H16.995L12 17.0551H17.0156L22.0002 22.0701Z" fill="#A596FF"/>
<path d="M22.0002 12.04H16.995L12 17.0551H17.0156L22.0002 12.04Z" fill="black"/>
<path d="M2.01025 22.0804V17.0551L7.00523 12.04V17.0759L2.01025 22.0804Z" fill="#A596FF"/>
<path d="M12.0003 22.0804V17.0551L7.00537 12.04V17.0759L12.0003 22.0805" fill="black"/>
<path d="M2 2.01013H7.00526L12.0002 7.02517H6.98461L2 2.01013Z" fill="#A596FF"/>
<path d="M2 12.0401H7.00526L12.0002 7.02502H6.98461L2 12.0401Z" fill="black"/>
</svg>

<svg xmlns="http://www.w3.org/2000/svg" width="24" height="24" fill="none" viewBox="0 0 24 24">
  <path fill="#A596FF" d="M21.99 2v5.025l-4.995 5.015V7.004L21.99 2"/>
  <path fill="#000" d="M12 2v5.025l4.995 5.015V7.004L12 2"/>
  <path fill="#A596FF" d="M22 22.07h-5.005L12 17.055h5.016L22 22.07Z"/>
  <path fill="#000" d="M22 12.04h-5.005L12 17.055h5.016L22 12.04Z"/>
  <path fill="#A596FF" d="M2.01 22.08v-5.025l4.995-5.015v5.036L2.01 22.08Z"/>
  <path fill="#000" d="M12 22.08v-5.025L7.005 12.04v5.036L12 22.08"/>
  <path fill="#A596FF" d="M2 2.01h5.005L12 7.025H6.985L2 2.01Z"/>
  <path fill="#000" d="M2 12.04h5.005L12 7.025H6.985L2 12.04Z"/>
</svg>
